!!!OTL: General Monroe, S. 516
!!!id: I0516
**kern
*clefG2
*k[f#]
*G:
{8g
8a
=1
4b
4g
8e
8g
=2
4d
4B
4d
=3
8e
4.g
4g
=4
2g}
=5
{8g
8g
8a
8b
8g
=6
4cc
4dd
4ee
=7
2dd
4b
=8
4a
4g
4a
=9
2b}
=10
{8g
8g
8a
8b
8g
=11
4cc
4dd
4ee
=12
8dd
4.dd
4b
=13
4a
4g
4a
=14
2b}
=15
{8b
8a
=16
4b
4g
8e
8g
=17
4d
4B
4d
=18
8e
8f#
4.g
8g
=19
2g}
==
*-
!!!minrhy: 8
!!!meters: 3/4 ]  ZZ[4
!!!cut: General Monroe, S. 516
!!!reg: Irland
!!!trd: O BOYLE, Sean: 25 Irish Folksongs, Dublin 1976
!!!rhy1: XX  X_X_XX  X_X_X_  XX_.X_  X__
!!!rhy2: (XXX)  X_X_X_  X__X_  X_X_X_  X__
!!!key: I0516  08  G 3/4 ]  ZZ[4
!!!mod: HEPTATONIK IONISCH]  AMBITUS[11
!!!kad: 1331
!!!akz: 3-5-61_4523_4523_3-5-61_
!!!fot: 'a__b__bv_aw_
!!!for: 'a__b__c__d__
!!!fok: '~__~a_~a_Vd_
!! PHRAS[AUFTAKTIG]
!!!fkt: Ballade, historisches Kriegslied
!! IRISCHE VKL.
!! PR[24] 2K[0] 2G[15] 3K[7] 3G[0] 4A[4] 4Ü[0] 5A[0] 6K[0] 6G[6]
!! 7K[0] 7G[0] 8A[0] MEHR[0] SI[31] ABS[54] SR[15] SP[17]
!! ST[16] 2k[0] 2g[28] 3k[13] 3g[2] 4d[2] 4ü[0] 5d[0] 6k[0] 6g[0]
!! 7k[0] 7g[0] 8d[0] mehr[0] si[44] dm[-13] sr[28] sp[17]
!! 1F[84] 2F[16] 3F[0] 4F[0] LF[0] 2P[0] 3P[0] 4P[0] TRI[0] DF[2] AB[55]
!! TF[0] U3K[0] U3[0] U4[0] U4Ü[0] U5[11] U6K[0] U6[11] U7K[0] U7[0]
!! N1[35] N2K[0] N2[11] N3K[0] N3[13] N4[0] N4Ü[0] N5[11] N6K[0] N6[9]
!!!n7k: 0] N7[0] O1[0] O2K[0] O2[0] O3K[0] O3[0] HÖ[0
